assets/wallet_receive.svg

<svg fill="none" height="13" viewBox="0 0 13 13" width="13" xmlns="http://www.w3.org/2000/svg"><path d="m11.0642.976787 1.4142 1.414213-8.48526 8.4853h7.77816v2.0082h-11.200555v-11.20061h2.008185v7.77818z" fill="#5f5f5f"/></svg>

<svg width="13" height="13" viewBox="0 0 13 13" fill="none" xmlns="http://www.w3.org/2000/svg">
<path d="M11.0642 0.976787L12.4784 2.391L3.99314 10.8763L11.7713 10.8763V12.8845L0.570745 12.8845L0.570745 1.68389L2.57893 1.68389L2.57893 9.46207L11.0642 0.976787Z" fill="#5F5F5F"/>
</svg>
